icons/snapchat-line.svg

<svg xmlns="http://www.w3.org/2000/svg" width="24" height="24" fill="none"><g clip-path="url(#a)"><g><path fill="#121212" d="M15.396 10.58L15.416 10.331C15.4715 9.55691 15.4992 8.78108 15.499 8.005C15.499 7.135 15.205 6.519 14.585 5.942C13.925 5.328 13.126 5 11.995 5C10.858 5 10.037 5.335 9.485 5.888C8.789 6.583 8.527 7.106 8.527 7.988C8.527 8.509 8.588 9.982 8.623 10.606C8.65147 11.1161 8.48366 11.6177 8.154 12.008C8.209 12.106 8.259 12.212 8.307 12.325C8.607 13.096 8.505 13.868 8.155 14.596C7.763 15.414 7.424 15.989 6.745 16.75C6.5434 16.9764 6.32905 17.191 6.103 17.393C6.27246 17.5557 6.41193 17.7469 6.515 17.958C7.04425 17.911 7.57743 17.9359 8.1 18.032C8.91 18.178 9.424 18.466 10.294 19.093L10.31 19.104L10.523 19.256C11.142 19.696 11.4 19.802 11.996 19.802C12.605 19.802 12.906 19.681 13.519 19.25L13.726 19.104C14.602 18.472 15.133 18.176 15.957 18.028C16.472 17.9424 16.9952 17.9175 17.516 17.954C17.6204 17.7418 17.7616 17.5498 17.933 17.387C17.7172 17.1924 17.5116 16.9868 17.317 16.771C16.7352 16.1228 16.2481 15.3956 15.87 14.611C15.507 13.862 15.4 13.071 15.733 12.29C15.773 12.192 15.818 12.1 15.865 12.014C15.5272 11.6153 15.3589 11.1002 15.396 10.579V10.58ZM5.081 10.478C5.5 10.478 5.681 10.783 6.3 10.783C6.457 10.783 6.56 10.748 6.626 10.717C6.617 10.561 6.527 8.731 6.527 7.988C6.527 6.3 7.247 5.298 8.07 4.474C8.893 3.65 10.175 3 11.996 3C13.816 3 15.062 3.653 15.948 4.478C16.834 5.303 17.499 6.408 17.499 8.006C17.499 9.561 17.4 10.6 17.391 10.722C17.4773 10.7663 17.5731 10.7886 17.67 10.787C18.3 10.787 18.3 10.477 19 10.477C19.685 10.477 19.983 11.047 19.983 11.3C19.983 11.921 19.15 12.267 18.653 12.426C18.284 12.543 17.722 12.717 17.578 13.061C17.504 13.235 17.535 13.461 17.67 13.739C17.673 13.747 18.93 16.622 21.6 17.065C21.835 17.1 21.991 17.306 21.991 17.548C21.991 17.88 21.621 18.165 21.265 18.33C20.822 18.53 20.174 18.7 19.313 18.835C19.27 18.913 19.179 19.32 19.078 19.722C18.943 20.264 18.277 20.088 18.087 20.048C17.4962 19.9236 16.8877 19.9074 16.291 20C15.809 20.087 15.378 20.378 14.896 20.726C14.183 21.23 13.431 21.802 11.996 21.802C10.56 21.802 9.852 21.23 9.139 20.726C8.657 20.378 8.234 20.089 7.743 20C6.845 19.837 6.173 20.036 5.948 20.057C5.722 20.077 5.106 20.301 4.952 19.73C4.907 19.564 4.761 18.922 4.717 18.835C3.861 18.7 3.209 18.522 2.765 18.322C2.4 18.157 2.039 17.879 2.039 17.543C2.039 17.308 2.197 17.103 2.43 17.061C5.074 16.578 6.196 14.056 6.352 13.731C6.484 13.455 6.513 13.231 6.443 13.052C6.3 12.709 5.739 12.539 5.37 12.417C5.265 12.383 4.034 12.044 4.034 11.3C4.034 11.06 4.239 10.727 4.616 10.57C4.76442 10.5123 4.92181 10.4812 5.081 10.478Z"/></g></g><defs><clipPath id="a"><rect width="24" height="24" fill="white"/></clipPath></defs></svg>

<svg width="24" height="24" fill="none" xmlns="http://www.w3.org/2000/svg"><g clip-path="url(#a)"><path d="m15.396 10.58.02-.249c.056-.774.083-1.55.083-2.326 0-.87-.294-1.486-.914-2.063-.66-.614-1.459-.942-2.59-.942-1.137 0-1.958.335-2.51.888-.696.695-.958 1.218-.958 2.1 0 .521.061 1.994.096 2.618a2 2 0 0 1-.469 1.402c.055.098.105.204.153.317.3.771.198 1.543-.152 2.271-.392.818-.731 1.393-1.41 2.154a7.974 7.974 0 0 1-.642.643 2 2 0 0 1 .412.565 5.885 5.885 0 0 1 1.585.074c.81.146 1.324.434 2.194 1.061l.016.011.213.152c.619.44.877.546 1.473.546.609 0 .91-.121 1.523-.552l.207-.146c.876-.632 1.407-.928 2.231-1.076a6.666 6.666 0 0 1 1.559-.074 2 2 0 0 1 .417-.567 8.443 8.443 0 0 1-.616-.616 9.237 9.237 0 0 1-1.447-2.16c-.363-.749-.47-1.54-.137-2.321.04-.098.085-.19.132-.276a2 2 0 0 1-.469-1.435v.001Zm-10.315-.102c.419 0 .6.305 1.219.305.157 0 .26-.035.326-.066-.009-.156-.099-1.986-.099-2.729 0-1.688.72-2.69 1.543-3.514C8.893 3.65 10.175 3 11.996 3c1.82 0 3.066.653 3.952 1.478.886.825 1.551 1.93 1.551 3.528 0 1.555-.099 2.594-.108 2.716a.59.59 0 0 0 .279.065c.63 0 .63-.31 1.33-.31.685 0 .983.57.983.823 0 .621-.833.967-1.33 1.126-.369.117-.931.291-1.075.635-.074.174-.043.4.092.678.003.008 1.26 2.883 3.93 3.326.235.035.391.241.391.483 0 .332-.37.617-.726.782-.443.2-1.091.37-1.952.505-.043.078-.134.485-.235.887-.135.542-.801.366-.991.326A5.02 5.02 0 0 0 16.291 20c-.482.087-.913.378-1.395.726-.713.504-1.465 1.076-2.9 1.076-1.436 0-2.144-.572-2.857-1.076-.482-.348-.905-.637-1.396-.726-.898-.163-1.57.036-1.795.057-.226.02-.842.244-.996-.327-.045-.166-.191-.808-.235-.895-.856-.135-1.508-.313-1.952-.513-.365-.165-.726-.443-.726-.779 0-.235.158-.44.391-.482 2.644-.483 3.766-3.005 3.922-3.33.132-.276.161-.5.091-.679-.143-.343-.704-.513-1.073-.635-.105-.034-1.336-.373-1.336-1.117 0-.24.205-.573.582-.73.148-.058.306-.089.465-.092Z" /></g><defs><clipPath id="a"><path fill="#fff" d="M0 0h24v24H0z"/></clipPath></defs></svg>
